X: 1
T: Gypsy, The
M: 4/4
L: 1/8
R: hornpipe
K: Gmaj
|: (3cBA | G2 D>G B>AG>F | G>B (3def g>d (3Bcd | g>dB>d e>cA>G | F>GA>B (3cBA (3FED |
G>BD>G (3BcB (3AGF | G2 (3def g>df>d | g>d (3Bcd e>c (3AGF | G2 (3B^AB G2 :|
K: Dmaj
|: (3EFG | A>BA>G (3FGA d>e | f2 (3edc d2 c>d | e>A (3A^GA =g2 (3fed | e>A^G>A =g>fe>c |
A2 (3BAG F>Ad>e | f>ed>c d>ef>g | (3a^ga =g>e (3f^ef (3=edc | d>A (3cBA d2 :|
